X:57
T:O Where and O Where can your Hilland Laddy Dell. WHG.056
R:march
S:W.H.Giles MS,Bampton,Oxfordshire,1839p60
O:England
H:donated by Mrs W.R.Kettlewell to VWML,Apr 1927.
A:Bampton, Oxfordshire
N:Presumably “Highland Laddie Dwell”.
N:Bar 2 1st note is d. Bar 4 & 16 is G2.
Z:PJHeadford – VMP 2009
M:C
L:1/4
Q:2/4=120
K:G
d|g2 fe|d2 ef/g/|BB cA|G3:||\
d|BG Bd|g2 eg|
fd ec|Hd2 ef|\
g2 fe|d2 ef/g/|BB cA|G3:|

